Newaita-dark/devices/22/battery.svg

<svg height="22pt" viewBox="0 0 22 22" width="22pt" xmlns="http://www.w3.org/2000/svg" xmlns:xlink="http://www.w3.org/1999/xlink"><linearGradient id="a"><stop offset="0" stop-opacity=".313725"/><stop offset=".222222" stop-opacity=".27451"/><stop offset="1" stop-opacity="0"/></linearGradient><radialGradient id="b" cx="450.908936" cy="189.579361" gradientTransform="matrix(.00000012 -.0537161 -.0966889 -.00000007 32.201452 43.72179)" gradientUnits="userSpaceOnUse" r="21.166656" xlink:href="#a"/><radialGradient id="c" cx="450.908936" cy="189.579361" gradientTransform="matrix(-.00000012 .0537161 .0966889 .00000007 -10.371248 -5.175142)" gradientUnits="userSpaceOnUse" r="21.166656" xlink:href="#a"/><radialGradient id="d" cx="450.908936" cy="189.579361" gradientTransform="matrix(-.00000012 -.0537161 .0966889 -.00000007 -10.371248 43.72179)" gradientUnits="userSpaceOnUse" r="21.166656" xlink:href="#a"/><radialGradient id="e" cx="450.908936" cy="189.579361" gradientTransform="matrix(.00000012 .0537161 -.0966889 .00000007 32.201451 -5.175143)" gradientUnits="userSpaceOnUse" r="21.166656" xlink:href="#a"/><linearGradient id="f"><stop offset="0" stop-color="#bdbdbd"/><stop offset="1" stop-color="#e0e0e0"/></linearGradient><linearGradient id="g" gradientUnits="userSpaceOnUse" x1="10.9151166" x2="10.9151166" xlink:href="#f" y1="5.6294394" y2="1.99106765838"/><linearGradient id="h" gradientUnits="userSpaceOnUse" x1="10.9151166" x2="10.9151166" xlink:href="#f" y1="19.27333515" y2="4.265049825"/><linearGradient id="i" gradientUnits="userSpaceOnUse" x1="10.9151166" x2="10.9151166" y1="19.27333515" y2="5.6294394"><stop offset="0" stop-color="#26a69a"/><stop offset="1" stop-color="#4db6ac"/></linearGradient><linearGradient id="j" gradientTransform="matrix(.0286486 0 0 .0429729 3.789964 9.239165)" gradientUnits="userSpaceOnUse" x1="254" x2="254" y1="233.5" y2="254.666672"><stop offset="0" stop-opacity=".27451"/><stop offset="1" stop-opacity="0"/></linearGradient><path d="m14.097656 19.273438h1.820313v-.910157h-1.820313zm0 0" fill="url(#b)"/><path d="m7.730469 19.273438h-1.816407v.910156h1.816407zm0 0" fill="url(#c)"/><path d="m7.730469 19.273438h-1.816407v-.910157h1.816407zm0 0" fill="url(#d)"/><path d="m14.097656 19.273438h1.820313v.910156h-1.820313zm0 0" fill="url(#e)"/><path d="m8.1875 1.992188h5.457031c.25 0 .453125.203124.453125.453124v2.730469c0 .25-.203125.453125-.453125.453125h-5.457031c-.253906 0-.457031-.203125-.457031-.453125v-2.730469c0-.25.203125-.453124.457031-.453124zm0 0" fill="url(#g)"/><path d="m8.1875 1.992188c-.253906 0-.457031.203124-.457031.453124v.226563c0-.25.203125-.453125.457031-.453125h5.457031c.25 0 .453125.203125.453125.453125v-.226563c0-.25-.203125-.453124-.453125-.453124zm0 0" fill="#fff" fill-opacity=".392157"/><path d="m8.1875 1.925781c-.289062 0-.519531.234375-.519531.519531v2.730469c0 .285157.230469.519531.519531.519531h5.457031c.285157 0 .519531-.234374.519531-.519531v-2.730469c0-.285156-.234374-.519531-.519531-.519531zm0 .128907h5.457031c.214844 0 .390625.171874.390625.390624v2.730469c0 .214844-.175781.390625-.390625.390625h-5.457031c-.21875 0-.390625-.175781-.390625-.390625v-2.730469c0-.21875.171875-.390624.390625-.390624zm0 0" fill="#212121"/><path d="m6.820312 4.265625h8.1875c.503907 0 .910157.40625.910157.910156v13.1875c0 .503907-.40625.910157-.910157.910157h-8.1875c-.5 0-.90625-.40625-.90625-.910157v-13.1875c0-.503906.40625-.910156.90625-.910156zm0 0" fill="url(#h)"/><path d="m5.914062 5.628906v12.734375c0 .503907.402344.910157.90625.910157h8.1875c.503907 0 .910157-.40625.910157-.910157v-12.734375zm0 0" fill="url(#i)"/><path d="m7.730469 19.273438h6.367187v.910156h-6.367187zm0 0" fill="url(#j)"/><path d="m6.820312 4.265625c-.503906 0-.90625.40625-.90625.910156v.226563c0-.503906.402344-.910156.90625-.910156h8.1875c.503907 0 .910157.40625.910157.910156v-.226563c0-.503906-.40625-.910156-.910157-.910156zm0 0" fill="#fff" fill-opacity=".392157"/><path d="m6.820312 19.273438c-.503906 0-.90625-.40625-.90625-.910157v-.226562c0 .503906.402344.910156.90625.910156h8.1875c.503907 0 .910157-.40625.910157-.910156v.226562c0 .503907-.40625.910157-.910157.910157zm0 0" fill-opacity=".235294"/><path d="m6.820312 4.199219c-.535156 0-.972656.4375-.972656.976562v13.1875c0 .539063.4375.972657.972656.972657h8.1875c.539063 0 .972657-.433594.972657-.972657v-13.1875c0-.539062-.433594-.976562-.972657-.976562zm0 .128906h8.1875c.46875 0 .84375.378906.84375.847656v13.1875c0 .46875-.375.84375-.84375.84375h-8.1875c-.46875 0-.84375-.375-.84375-.84375v-13.1875c0-.46875.375-.847656.84375-.847656zm0 0" fill="#212121"/></svg>

<?xml version="1.0" encoding="UTF-8"?>
<svg xmlns="http://www.w3.org/2000/svg" xmlns:xlink="http://www.w3.org/1999/xlink" width="22pt" height="22pt" viewBox="0 0 22 22" version="1.1">
<defs>
<radialGradient id="radial0" gradientUnits="userSpaceOnUse" cx="450.908936" cy="189.579361" fx="450.908936" fy="189.579361" r="21.166656" gradientTransform="matrix(0.000000119742,-0.0537161,-0.0966889,-0.0000000698078,32.201452,43.72179)">
<stop offset="0" style="stop-color:rgb(0%,0%,0%);stop-opacity:0.313725;"/>
<stop offset="0.222222" style="stop-color:rgb(0%,0%,0%);stop-opacity:0.27451;"/>
<stop offset="1" style="stop-color:rgb(0%,0%,0%);stop-opacity:0;"/>
</radialGradient>
<radialGradient id="radial1" gradientUnits="userSpaceOnUse" cx="450.908936" cy="189.579361" fx="450.908936" fy="189.579361" r="21.166656" gradientTransform="matrix(-0.000000119742,0.0537161,0.0966889,0.0000000698078,-10.371248,-5.175142)">
<stop offset="0" style="stop-color:rgb(0%,0%,0%);stop-opacity:0.313725;"/>
<stop offset="0.222222" style="stop-color:rgb(0%,0%,0%);stop-opacity:0.27451;"/>
<stop offset="1" style="stop-color:rgb(0%,0%,0%);stop-opacity:0;"/>
</radialGradient>
<radialGradient id="radial2" gradientUnits="userSpaceOnUse" cx="450.908936" cy="189.579361" fx="450.908936" fy="189.579361" r="21.166656" gradientTransform="matrix(-0.000000119742,-0.0537161,0.0966889,-0.0000000698078,-10.371248,43.72179)">
<stop offset="0" style="stop-color:rgb(0%,0%,0%);stop-opacity:0.313725;"/>
<stop offset="0.222222" style="stop-color:rgb(0%,0%,0%);stop-opacity:0.27451;"/>
<stop offset="1" style="stop-color:rgb(0%,0%,0%);stop-opacity:0;"/>
</radialGradient>
<radialGradient id="radial3" gradientUnits="userSpaceOnUse" cx="450.908936" cy="189.579361" fx="450.908936" fy="189.579361" r="21.166656" gradientTransform="matrix(0.000000119742,0.0537161,-0.0966889,0.0000000698078,32.201451,-5.175143)">
<stop offset="0" style="stop-color:rgb(0%,0%,0%);stop-opacity:0.313725;"/>
<stop offset="0.222222" style="stop-color:rgb(0%,0%,0%);stop-opacity:0.27451;"/>
<stop offset="1" style="stop-color:rgb(0%,0%,0%);stop-opacity:0;"/>
</radialGradient>
<linearGradient id="linear0" gradientUnits="userSpaceOnUse" x1="254" y1="-84" x2="254" y2="-168.666656" gradientTransform="matrix(0.0429729,0,0,0.0429729,0,9.239163)">
<stop offset="0" style="stop-color:rgb(74.117647%,74.117647%,74.117647%);stop-opacity:1;"/>
<stop offset="1" style="stop-color:rgb(87.843137%,87.843137%,87.843137%);stop-opacity:1;"/>
</linearGradient>
<linearGradient id="linear1" gradientUnits="userSpaceOnUse" x1="254" y1="233.5" x2="254" y2="-115.75" gradientTransform="matrix(0.0429729,0,0,0.0429729,0,9.239163)">
<stop offset="0" style="stop-color:rgb(74.117647%,74.117647%,74.117647%);stop-opacity:1;"/>
<stop offset="1" style="stop-color:rgb(87.843137%,87.843137%,87.843137%);stop-opacity:1;"/>
</linearGradient>
<linearGradient id="linear2" gradientUnits="userSpaceOnUse" x1="254" y1="233.5" x2="254" y2="-84" gradientTransform="matrix(0.0429729,0,0,0.0429729,0,9.239163)">
<stop offset="0" style="stop-color:rgb(14.901961%,65.098039%,60.392157%);stop-opacity:1;"/>
<stop offset="1" style="stop-color:rgb(30.196078%,71.372549%,67.45098%);stop-opacity:1;"/>
</linearGradient>
<linearGradient id="linear3" gradientUnits="userSpaceOnUse" x1="254" y1="233.5" x2="254" y2="254.666672" gradientTransform="matrix(0.0286486,0,0,0.0429729,3.789964,9.239165)">
<stop offset="0" style="stop-color:rgb(0%,0%,0%);stop-opacity:0.27451;"/>
<stop offset="1" style="stop-color:rgb(0%,0%,0%);stop-opacity:0;"/>
</linearGradient>
</defs>
<g id="surface1">
<path style=" stroke:none;fill-rule:nonzero;fill:url(#radial0);" d="M 14.097656 19.273438 L 15.917969 19.273438 L 15.917969 18.363281 L 14.097656 18.363281 Z M 14.097656 19.273438 "/>
<path style=" stroke:none;fill-rule:nonzero;fill:url(#radial1);" d="M 7.730469 19.273438 L 5.914062 19.273438 L 5.914062 20.183594 L 7.730469 20.183594 Z M 7.730469 19.273438 "/>
<path style=" stroke:none;fill-rule:nonzero;fill:url(#radial2);" d="M 7.730469 19.273438 L 5.914062 19.273438 L 5.914062 18.363281 L 7.730469 18.363281 Z M 7.730469 19.273438 "/>
<path style=" stroke:none;fill-rule:nonzero;fill:url(#radial3);" d="M 14.097656 19.273438 L 15.917969 19.273438 L 15.917969 20.183594 L 14.097656 20.183594 Z M 14.097656 19.273438 "/>
<path style=" stroke:none;fill-rule:nonzero;fill:url(#linear0);" d="M 8.1875 1.992188 L 13.644531 1.992188 C 13.894531 1.992188 14.097656 2.195312 14.097656 2.445312 L 14.097656 5.175781 C 14.097656 5.425781 13.894531 5.628906 13.644531 5.628906 L 8.1875 5.628906 C 7.933594 5.628906 7.730469 5.425781 7.730469 5.175781 L 7.730469 2.445312 C 7.730469 2.195312 7.933594 1.992188 8.1875 1.992188 Z M 8.1875 1.992188 "/>
<path style=" stroke:none;fill-rule:nonzero;fill:rgb(100%,100%,100%);fill-opacity:0.392157;" d="M 8.1875 1.992188 C 7.933594 1.992188 7.730469 2.195312 7.730469 2.445312 L 7.730469 2.671875 C 7.730469 2.421875 7.933594 2.21875 8.1875 2.21875 L 13.644531 2.21875 C 13.894531 2.21875 14.097656 2.421875 14.097656 2.671875 L 14.097656 2.445312 C 14.097656 2.195312 13.894531 1.992188 13.644531 1.992188 Z M 8.1875 1.992188 "/>
<path style=" stroke:none;fill-rule:nonzero;fill:rgb(12.941177%,12.941177%,12.941177%);fill-opacity:1;" d="M 8.1875 1.925781 C 7.898438 1.925781 7.667969 2.160156 7.667969 2.445312 L 7.667969 5.175781 C 7.667969 5.460938 7.898438 5.695312 8.1875 5.695312 L 13.644531 5.695312 C 13.929688 5.695312 14.164062 5.460938 14.164062 5.175781 L 14.164062 2.445312 C 14.164062 2.160156 13.929688 1.925781 13.644531 1.925781 Z M 8.1875 2.054688 L 13.644531 2.054688 C 13.859375 2.054688 14.035156 2.226562 14.035156 2.445312 L 14.035156 5.175781 C 14.035156 5.390625 13.859375 5.566406 13.644531 5.566406 L 8.1875 5.566406 C 7.96875 5.566406 7.796875 5.390625 7.796875 5.175781 L 7.796875 2.445312 C 7.796875 2.226562 7.96875 2.054688 8.1875 2.054688 Z M 8.1875 2.054688 "/>
<path style=" stroke:none;fill-rule:nonzero;fill:url(#linear1);" d="M 6.820312 4.265625 L 15.007812 4.265625 C 15.511719 4.265625 15.917969 4.671875 15.917969 5.175781 L 15.917969 18.363281 C 15.917969 18.867188 15.511719 19.273438 15.007812 19.273438 L 6.820312 19.273438 C 6.320312 19.273438 5.914062 18.867188 5.914062 18.363281 L 5.914062 5.175781 C 5.914062 4.671875 6.320312 4.265625 6.820312 4.265625 Z M 6.820312 4.265625 "/>
<path style=" stroke:none;fill-rule:nonzero;fill:url(#linear2);" d="M 5.914062 5.628906 L 5.914062 18.363281 C 5.914062 18.867188 6.316406 19.273438 6.820312 19.273438 L 15.007812 19.273438 C 15.511719 19.273438 15.917969 18.867188 15.917969 18.363281 L 15.917969 5.628906 Z M 5.914062 5.628906 "/>
<path style=" stroke:none;fill-rule:nonzero;fill:url(#linear3);" d="M 7.730469 19.273438 L 14.097656 19.273438 L 14.097656 20.183594 L 7.730469 20.183594 Z M 7.730469 19.273438 "/>
<path style=" stroke:none;fill-rule:nonzero;fill:rgb(100%,100%,100%);fill-opacity:0.392157;" d="M 6.820312 4.265625 C 6.316406 4.265625 5.914062 4.671875 5.914062 5.175781 L 5.914062 5.402344 C 5.914062 4.898438 6.316406 4.492188 6.820312 4.492188 L 15.007812 4.492188 C 15.511719 4.492188 15.917969 4.898438 15.917969 5.402344 L 15.917969 5.175781 C 15.917969 4.671875 15.511719 4.265625 15.007812 4.265625 Z M 6.820312 4.265625 "/>
<path style=" stroke:none;fill-rule:nonzero;fill:rgb(0%,0%,0%);fill-opacity:0.235294;" d="M 6.820312 19.273438 C 6.316406 19.273438 5.914062 18.867188 5.914062 18.363281 L 5.914062 18.136719 C 5.914062 18.640625 6.316406 19.046875 6.820312 19.046875 L 15.007812 19.046875 C 15.511719 19.046875 15.917969 18.640625 15.917969 18.136719 L 15.917969 18.363281 C 15.917969 18.867188 15.511719 19.273438 15.007812 19.273438 Z M 6.820312 19.273438 "/>
<path style=" stroke:none;fill-rule:nonzero;fill:rgb(12.941177%,12.941177%,12.941177%);fill-opacity:1;" d="M 6.820312 4.199219 C 6.285156 4.199219 5.847656 4.636719 5.847656 5.175781 L 5.847656 18.363281 C 5.847656 18.902344 6.285156 19.335938 6.820312 19.335938 L 15.007812 19.335938 C 15.546875 19.335938 15.980469 18.902344 15.980469 18.363281 L 15.980469 5.175781 C 15.980469 4.636719 15.546875 4.199219 15.007812 4.199219 Z M 6.820312 4.328125 L 15.007812 4.328125 C 15.476562 4.328125 15.851562 4.707031 15.851562 5.175781 L 15.851562 18.363281 C 15.851562 18.832031 15.476562 19.207031 15.007812 19.207031 L 6.820312 19.207031 C 6.351562 19.207031 5.976562 18.832031 5.976562 18.363281 L 5.976562 5.175781 C 5.976562 4.707031 6.351562 4.328125 6.820312 4.328125 Z M 6.820312 4.328125 "/>
</g>
</svg>
